packages/calcite-ui-icons/icons/square-brackets-x-32.svg

<?xml version="1.0" encoding="UTF-8"?><svg id="icons" xmlns="http://www.w3.org/2000/svg" viewBox="0 0 32 32"><rect width="32" height="32" style="fill:none;"/><path d="M8,28v1H2V3h6v1H3v24h5ZM24,4h5v24h-5v1h6V3h-6v1ZM26,8v-1h-1.72461l-.27539.30981-7.67316,8.63226-4.49286-8.94208h-2.83398v1h2.2168l4.39478,8.74683-7.33618,8.25317h-1.27539v1h1.72461l7.37018-8.29144,4.16595,8.29144h2.73926v-1h-2.12207l-4.06787-8.09613,7.18994-8.08868.72461-.81519h1.27539Z"/></svg>

<svg xmlns="http://www.w3.org/2000/svg" viewBox="0 0 32 32"><path fill="none" d="M0 0h32v32H0z"/><path d="M8 28v1H2V3h6v1H3v24h5zM24 4h5v24h-5v1h6V3h-6v1zm2 4V7h-1.725L24 7.31l-7.673 8.632L11.834 7H9v1h2.217l4.395 8.747L8.275 25H7v1h1.725l7.37-8.291L20.26 26H23v-1h-2.122l-4.068-8.096L24 8.815 24.725 8H26z"/></svg>
